understanding/21/img/1.4.11-ntc-star-examples-pass.svg

<svg role="image img" width="321" height="146" viewBox="0 0 321 146" fill="none" xmlns="http://www.w3.org/2000/svg">
  <title>Two star ratings, one uses a black outline (on white) with a black fill to indicate it is checked. The second has a yellow fill and a thicker dark border.</title>
  <rect width="321" height="146" fill="white"/>
  <path d="M44.5979 21.8525C45.1967 20.0101 47.8033 20.0101 48.4021 21.8525L53.7001 38.154H70.8434C72.781 38.154 73.5864 40.6335 72.0188 41.7722L58.15 51.846L63.4476 68.1465C64.0465 69.989 61.9377 71.5214 60.3702 70.3828L46.5 60.3081L32.6298 70.3828C31.0623 71.5214 28.9535 69.989 29.5524 68.1465L34.85 51.846L20.9812 41.7722C19.4136 40.6335 20.219 38.154 22.1566 38.154H39.2999L44.5979 21.8525Z" fill="black"/>
  <path d="M101.598 21.8525C102.197 20.0101 104.803 20.0101 105.402 21.8525L110.7 38.154H127.843C129.781 38.154 130.586 40.6335 129.019 41.7722L115.15 51.846L120.448 68.1465C121.046 69.989 118.938 71.5214 117.37 70.3828L103.5 60.3081L89.6298 70.3828C88.0623 71.5214 85.9535 69.989 86.5524 68.1465L91.85 51.846L77.9812 41.7722C76.4136 40.6335 77.219 38.154 79.1566 38.154H96.2999L101.598 21.8525Z" fill="black"/>
  <path d="M160.024 22.3164C160.174 21.8558 160.826 21.8558 160.976 22.3164L166.273 38.6172C166.474 39.2352 167.05 39.6543 167.7 39.6543H184.844C185.328 39.6546 185.529 40.2739 185.138 40.5586L171.269 50.6328C170.743 51.0148 170.523 51.6915 170.724 52.3096L176.021 68.6104C176.171 69.0708 175.644 69.4535 175.252 69.1689L161.382 59.0947C160.889 58.7367 160.232 58.7139 159.719 59.0273L159.618 59.0947L145.748 69.1689C145.356 69.4535 144.829 69.0708 144.979 68.6104L150.276 52.3096C150.477 51.6915 150.257 51.0148 149.731 50.6328L135.862 40.5586C135.471 40.2739 135.672 39.6546 136.156 39.6543H153.3C153.95 39.6543 154.526 39.2352 154.727 38.6172L160.024 22.3164Z" stroke="black" stroke-width="3" stroke-linejoin="round"/>
  <path d="M217.024 22.3164C217.174 21.8558 217.826 21.8558 217.976 22.3164L223.273 38.6172C223.474 39.2352 224.05 39.6543 224.7 39.6543H241.844C242.328 39.6546 242.529 40.2739 242.138 40.5586L228.269 50.6328C227.743 51.0148 227.523 51.6915 227.724 52.3096L233.021 68.6104C233.171 69.0708 232.644 69.4535 232.252 69.1689L218.382 59.0947C217.889 58.7367 217.232 58.7139 216.719 59.0273L216.618 59.0947L202.748 69.1689C202.356 69.4535 201.829 69.0708 201.979 68.6104L207.276 52.3096C207.477 51.6915 207.257 51.0148 206.731 50.6328L192.862 40.5586C192.471 40.2739 192.672 39.6546 193.156 39.6543H210.3C210.95 39.6543 211.526 39.2352 211.727 38.6172L217.024 22.3164Z" stroke="black" stroke-width="3" stroke-linejoin="round"/>
  <path d="M274.024 22.3164C274.174 21.8558 274.826 21.8558 274.976 22.3164L280.273 38.6172C280.474 39.2352 281.05 39.6543 281.7 39.6543H298.844C299.328 39.6546 299.529 40.2739 299.138 40.5586L285.269 50.6328C284.743 51.0148 284.523 51.6915 284.724 52.3096L290.021 68.6104C290.171 69.0708 289.644 69.4535 289.252 69.1689L275.382 59.0947C274.889 58.7367 274.232 58.7139 273.719 59.0273L273.618 59.0947L259.748 69.1689C259.356 69.4535 258.829 69.0708 258.979 68.6104L264.276 52.3096C264.477 51.6915 264.257 51.0148 263.731 50.6328L249.862 40.5586C249.471 40.2739 249.672 39.6546 250.156 39.6543H267.3C267.95 39.6543 268.526 39.2352 268.727 38.6172L274.024 22.3164Z" stroke="black" stroke-width="3" stroke-linejoin="round"/>
  <path d="M51.3223 94.9268C51.657 95.9567 52.6172 96.6543 53.7002 96.6543H69.3037L56.6807 105.823C55.8043 106.46 55.4377 107.589 55.7725 108.619L60.5947 123.455L47.9688 114.285C47.1473 113.689 46.0536 113.652 45.1982 114.174L45.0312 114.285L32.4043 123.455L37.2275 108.619C37.5623 107.589 37.1957 106.46 36.3193 105.823L23.6963 96.6543H39.2998C40.3828 96.6543 41.343 95.9567 41.6777 94.9268L46.5 80.0879L51.3223 94.9268Z" fill="#FFF000" stroke="black" stroke-width="5" stroke-linejoin="round"/>
  <path d="M108.322 94.9268C108.657 95.9567 109.617 96.6543 110.7 96.6543H126.304L113.681 105.823C112.804 106.46 112.438 107.589 112.772 108.619L117.595 123.455L104.969 114.285C104.147 113.689 103.054 113.652 102.198 114.174L102.031 114.285L89.4043 123.455L94.2275 108.619C94.5623 107.589 94.1957 106.46 93.3193 105.823L80.6963 96.6543H96.2998C97.3828 96.6543 98.343 95.9567 98.6777 94.9268L103.5 80.0879L108.322 94.9268Z" fill="#FFF000" stroke="black" stroke-width="5" stroke-linejoin="round"/>
  <path d="M160.024 78.3164C160.174 77.8558 160.826 77.8558 160.976 78.3164L166.273 94.6172C166.474 95.2352 167.05 95.6543 167.7 95.6543H184.844C185.328 95.6546 185.529 96.2739 185.138 96.5586L171.269 106.633C170.743 107.015 170.523 107.692 170.724 108.31L176.021 124.61C176.171 125.071 175.644 125.453 175.252 125.169L161.382 115.095C160.889 114.737 160.232 114.714 159.719 115.027L159.618 115.095L145.748 125.169C145.356 125.453 144.829 125.071 144.979 124.61L150.276 108.31C150.477 107.692 150.257 107.015 149.731 106.633L135.862 96.5586C135.471 96.2739 135.672 95.6546 136.156 95.6543H153.3C153.95 95.6543 154.526 95.2352 154.727 94.6172L160.024 78.3164Z" stroke="black" stroke-width="3" stroke-linejoin="round"/>
  <path d="M217.024 78.3164C217.174 77.8558 217.826 77.8558 217.976 78.3164L223.273 94.6172C223.474 95.2352 224.05 95.6543 224.7 95.6543H241.844C242.328 95.6546 242.529 96.2739 242.138 96.5586L228.269 106.633C227.743 107.015 227.523 107.692 227.724 108.31L233.021 124.61C233.171 125.071 232.644 125.453 232.252 125.169L218.382 115.095C217.889 114.737 217.232 114.714 216.719 115.027L216.618 115.095L202.748 125.169C202.356 125.453 201.829 125.071 201.979 124.61L207.276 108.31C207.477 107.692 207.257 107.015 206.731 106.633L192.862 96.5586C192.471 96.2739 192.672 95.6546 193.156 95.6543H210.3C210.95 95.6543 211.526 95.2352 211.727 94.6172L217.024 78.3164Z" stroke="black" stroke-width="3" stroke-linejoin="round"/>
  <path d="M274.024 78.3164C274.174 77.8558 274.826 77.8558 274.976 78.3164L280.273 94.6172C280.474 95.2352 281.05 95.6543 281.7 95.6543H298.844C299.328 95.6546 299.529 96.2739 299.138 96.5586L285.269 106.633C284.743 107.015 284.523 107.692 284.724 108.31L290.021 124.61C290.171 125.071 289.644 125.453 289.252 125.169L275.382 115.095C274.889 114.737 274.232 114.714 273.719 115.027L273.618 115.095L259.748 125.169C259.356 125.453 258.829 125.071 258.979 124.61L264.276 108.31C264.477 107.692 264.257 107.015 263.731 106.633L249.862 96.5586C249.471 96.2739 249.672 95.6546 250.156 95.6543H267.3C267.95 95.6543 268.526 95.2352 268.727 94.6172L274.024 78.3164Z" stroke="black" stroke-width="3" stroke-linejoin="round"/>
</svg>

<svg role="image" width="321" height="146" viewBox="0 0 321 146" fill="none" xmlns="http://www.w3.org/2000/svg">
  <title>Two star ratings, one uses a black outline (on white) with a black fill to indicate it is checked. The second has a yellow fill and a thicker dark border.</title>
  <rect width="321" height="146" fill="#fff"/>
  <path d="M44.6 21.85a2 2 0 0 1 3.8 0l5.3 16.3h17.14a2 2 0 0 1 1.18 3.62L58.15 51.85l5.3 16.3a2 2 0 0 1-3.08 2.23L46.5 60.31 32.63 70.38a2 2 0 0 1-3.08-2.23l5.3-16.3-13.87-10.08a2 2 0 0 1 1.18-3.62H39.3zm57 0a2 2 0 0 1 3.8 0l5.3 16.3h17.14a2 2 0 0 1 1.18 3.62l-13.87 10.08 5.3 16.3a2 2 0 0 1-3.08 2.23L103.5 60.31 89.63 70.38a2 2 0 0 1-3.08-2.23l5.3-16.3-13.87-10.08a2 2 0 0 1 1.18-3.62H96.3z" fill="#000"/>
  <path d="M160.02 22.32a.5.5 0 0 1 .96 0l5.3 16.3.33 1.03h18.23a.5.5 0 0 1 .3.9l-13.87 10.08-.88.64.33 1.04 5.3 16.3a.5.5 0 0 1-.77.56l-13.87-10.08-.88-.64-.88.64-13.87 10.08a.5.5 0 0 1-.77-.56l5.3-16.3.33-1.04-.88-.64-13.87-10.07a.5.5 0 0 1 .3-.9h18.23l.34-1.04zm57 0a.5.5 0 0 1 .96 0l5.3 16.3.33 1.03h18.23a.5.5 0 0 1 .3.9l-13.87 10.08-.88.64.33 1.04 5.3 16.3a.5.5 0 0 1-.77.56l-13.87-10.08-.88-.64-.88.64-13.87 10.08a.5.5 0 0 1-.77-.56l5.3-16.3.33-1.04-.88-.64-13.87-10.07a.5.5 0 0 1 .3-.9h18.23l.34-1.04zm57 0a.5.5 0 0 1 .96 0l5.3 16.3.33 1.03h18.23a.5.5 0 0 1 .3.9l-13.87 10.08-.88.64.33 1.04 5.3 16.3a.5.5 0 0 1-.77.56l-13.87-10.08-.88-.64-.88.64-13.87 10.08a.5.5 0 0 1-.77-.56l5.3-16.3.33-1.04-.88-.64-13.87-10.07a.5.5 0 0 1 .3-.9h18.23l.34-1.04z" stroke="#000" stroke-width="3" stroke-linejoin="round"/>
  <path d="m51.32 94.93.56 1.72H69.3l-12.62 9.17-1.47 1.07.56 1.73 4.83 14.83-12.63-9.17-1.47-1.06-1.47 1.07-12.63 9.16 4.83-14.83.56-1.73-1.47-1.07-12.62-9.17h17.42l.56-1.72 4.82-14.84zm57 0 .56 1.72h17.42l-12.62 9.17-1.47 1.07.56 1.73 4.83 14.83-12.63-9.17-1.47-1.06-1.47 1.07-12.63 9.16 4.83-14.83.56-1.73-1.47-1.07-12.62-9.17h17.42l.56-1.72 4.82-14.84z" fill="#fff000" stroke="#000" stroke-width="5" stroke-linejoin="round"/>
  <path d="M160.02 78.32a.5.5 0 0 1 .96 0l5.3 16.3.33 1.03h18.23a.5.5 0 0 1 .3.9l-13.87 10.08-.88.64.33 1.04 5.3 16.3a.5.5 0 0 1-.77.56l-13.87-10.08-.88-.64-.88.64-13.87 10.08a.5.5 0 0 1-.77-.56l5.3-16.3.33-1.04-.88-.64-13.87-10.07a.5.5 0 0 1 .3-.9h18.23l.34-1.04zm57 0a.5.5 0 0 1 .96 0l5.3 16.3.33 1.03h18.23a.5.5 0 0 1 .3.9l-13.87 10.08-.88.64.33 1.04 5.3 16.3a.5.5 0 0 1-.77.56l-13.87-10.08-.88-.64-.88.64-13.87 10.08a.5.5 0 0 1-.77-.56l5.3-16.3.33-1.04-.88-.64-13.87-10.07a.5.5 0 0 1 .3-.9h18.23l.34-1.04zm57 0a.5.5 0 0 1 .96 0l5.3 16.3.33 1.03h18.23a.5.5 0 0 1 .3.9l-13.87 10.08-.88.64.33 1.04 5.3 16.3a.5.5 0 0 1-.77.56l-13.87-10.08-.88-.64-.88.64-13.87 10.08a.5.5 0 0 1-.77-.56l5.3-16.3.33-1.04-.88-.64-13.87-10.07a.5.5 0 0 1 .3-.9h18.23l.34-1.04z" stroke="#000" stroke-width="3" stroke-linejoin="round"/>
</svg>
